X:400
T:Sans Day Carol
M:3/4
L:1/8
K:G
G>B | d2 d2 d>c | B2 G2 B2 | c2 A2 F2 | G4 GB | 
d2 d2 dc | B2 G2 B2 | c2 A2 F2 | G4 GB | 
d2 d2 ef | g2 d2 d2 | d2 d2 ef | g4 GB | 
d2 d2 dc | B2 G2 B2 | c2 A2 F2 | G4 A2 | 
A4 A2 | B4 GB | d2 d2 dc | B2 G2 B2 | c2 A2 F2 | G6 |] 

